icon-svg/pedastal-fan-hollow.svg

<svg xmlns="http://www.w3.org/2000/svg" fill="#44739e" viewBox="0 0 24 24"><path d="M12.722 16.161a.208.208 0 1 0-.208.19.2.2 0 0 0 .208-.19m-1.31-.189a.19.19 0 1 0 .208.189.2.2 0 0 0-.208-.189m-.048-.932.004-.007v-.023l-.004.007zm1.2012-1.5832.0014-.0014.019.0191-.0013.0014zm-.2302-.0948h-.015v.001h.015zm.122 4.945h.011v-.053a1.047 1.047 0 0 0 .969-1.046v-4.926a5.247 5.247 0 0 0 3.583-6.5 4.7 4.7 0 0 0-.2-.483 5 5 0 0 1 .193.485 5.2 5.2 0 0 1 .176 1.808 5.18 5.18 0 0 0-.178-1.8 5.4 5.4 0 0 0-.241-.611c-.037-.084-.065-.173-.105-.254a5.6 5.6 0 0 0-2.458-2.409l-.018-.01h-.006l-.026-.011a5.133 5.133 0 0 0-6.306 1.55 5 5 0 0 0-.359.522c-.073.123-.137.25-.2.378-.072.147-.136.3-.194.45a5.22 5.22 0 0 0-.324 1.973 4.9 4.9 0 0 0 .02.513 5.2 5.2 0 0 0 .138.733c-.009-.033-.017-.066-.026-.1.015.061.016.122.033.182.012.037.031.071.043.108-.006-.02-.01-.042-.016-.063a5.17 5.17 0 0 0 .312.8c.019.04.039.08.06.119l-.009-.015a5.2 5.2 0 0 0 .323.524c.048.071.084.15.136.219v.01a5.26 5.26 0 0 0 1.029 1.03h.009a5.2 5.2 0 0 0 .742.458l-.017-.008.117.061a5.36 5.36 0 0 0 .845.33 5.24 5.24 0 0 1-.809-.316 5.2 5.2 0 0 0 .809.322V17.2a1.07 1.07 0 0 0 .967 1.05v.055h.087v2.755H8.813a.469.469 0 1 0 0 .938h6.359a.469.469 0 0 0 0-.938h-2.739v-2.92.167zM7.575 7.214A4.425 4.425 0 1 1 12 11.639a4.425 4.425 0 0 1-4.425-4.425m3.372 5.967a.268.268 0 0 1 .28-.252h1.463a.267.267 0 0 1 .279.25v1.971a.266.266 0 0 1-.279.251h-1.463a.266.266 0 0 1-.279-.251v-1.969zm.472 3.349a.372.372 0 1 1 0-.74h.006a.372.372 0 1 1-.006.74m.684-.371a.393.393 0 0 1 .413-.369.39.39 0 0 1 .408.37.413.413 0 0 1-.822 0zm-.332-3.015-.667.939v.891l1.294-1.83zm.656 2.042.345-.486v-1.391l-1.325 1.877z"/></svg>

<?xml version="1.0" encoding="UTF-8"?>
<svg width="24px" fill="#44739e" height="24px" viewBox="0 0 24 24" version="1.1" xmlns="http://www.w3.org/2000/svg" xmlns:xlink="http://www.w3.org/1999/xlink">
            <path d="m 12.722,16.161 a 0.208,0.208 0 1 0 -0.208,0.19 0.2,0.2 0 0 0 0.208,-0.19 z m -1.31,-0.189 a 0.19,0.19 0 1 0 0.208,0.189 0.2,0.2 0 0 0 -0.208,-0.189 z M 11.364,15.04 11.368,15.033 V 15.01 l -0.004,0.007 z m 1.201161,-1.58316 0.0014,-0.0014 0.01909,0.01909 -0.0014,0.0014 z M 12.335,13.362 H 12.334 12.32 v 10e-4 h 0.013 0.002 z m 0.122,4.945 h 0.011 v -0.053 a 1.047,1.047 0 0 0 0.969,-1.046 v -4.926 a 5.247,5.247 0 0 0 3.583,-6.5 4.667,4.667 0 0 0 -0.2,-0.483 5.045,5.045 0 0 1 0.193,0.485 5.205,5.205 0 0 1 0.176,1.808 5.184,5.184 0 0 0 -0.178,-1.8 A 5.419,5.419 0 0 0 16.77,5.181 C 16.733,5.097 16.705,5.008 16.665,4.927 A 5.6,5.6 0 0 0 14.207,2.518 L 14.189,2.508 H 14.183 L 14.157,2.497 A 5.133,5.133 0 0 0 7.851,4.047 5.03,5.03 0 0 0 7.492,4.569 v 0 c -0.073,0.123 -0.137,0.25 -0.2,0.378 v 0 C 7.22,5.094 7.156,5.247 7.098,5.397 A 5.218,5.218 0 0 0 6.774,7.37 4.9,4.9 0 0 0 6.794,7.883 5.23,5.23 0 0 0 6.932,8.616 C 6.923,8.583 6.915,8.55 6.906,8.516 6.921,8.577 6.922,8.638 6.939,8.698 6.951,8.735 6.97,8.769 6.982,8.806 6.976,8.786 6.972,8.764 6.966,8.743 a 5.168,5.168 0 0 0 0.312,0.8 c 0.019,0.04 0.039,0.08 0.06,0.119 L 7.329,9.647 a 5.229,5.229 0 0 0 0.323,0.524 c 0.048,0.071 0.084,0.15 0.136,0.219 v 0.01 a 5.257,5.257 0 0 0 1.029,1.03 h 0.009 a 5.2,5.2 0 0 0 0.742,0.458 L 9.551,11.88 9.668,11.941 a 5.361,5.361 0 0 0 0.845,0.33 v 0 a 5.236,5.236 0 0 1 -0.809,-0.316 5.223,5.223 0 0 0 0.809,0.322 V 17.2 a 1.07,1.07 0 0 0 0.967,1.05 v 0.055 h 0.087 V 21.06 H 8.813 a 0.469,0.469 0 1 0 0,0.938 h 6.359 a 0.469,0.469 0 0 0 0,-0.938 h -2.739 v -2.92 0 0.167 z M 7.575,7.214 A 4.425,4.425 0 1 1 12,11.639 4.425,4.425 0 0 1 7.575,7.214 Z m 3.372,5.967 a 0.268,0.268 0 0 1 0.28,-0.252 h 1.463 a 0.267,0.267 0 0 1 0.279,0.25 V 15.15 A 0.266,0.266 0 0 1 12.69,15.401 H 11.227 A 0.266,0.266 0 0 1 10.948,15.15 v -1.969 z m 0.472,3.349 a 0.372,0.372 0 1 1 0,-0.74 h 0.006 a 0.372,0.372 0 1 1 -0.006,0.74 z m 0.684,-0.371 a 0.393,0.393 0 0 1 0.413,-0.369 v 0 a 0.39,0.39 0 0 1 0.408,0.37 v 0 a 0.413,0.413 0 0 1 -0.822,0 z m -0.332,-3.015 -0.667,0.939 v 0.891 l 1.294,-1.83 z m 0.656,2.042 0.345,-0.486 v -1.391 l -1.325,1.877 z"/>

</svg>
